X: 2413
T: Ballad Of Ballynure, The
R: reel
M: 4/4
K: Edorian
B2|[M:5/4] B>e (3eee e>d B>c d>e|[M:4/4] f2-f>e dB- (3Bde|
f>e e>d B>A (3(AB)c|D>B B>A F>E (3EFD|
F2 F>D E2 (3FGA|B>c d>F F>E E-|E2 z6||

